assets/images/icons/eyeoff.svg

<svg fill="none" height="24" viewBox="0 0 24 24" width="24" xmlns="http://www.w3.org/2000/svg">
    <path clip-rule="evenodd" d="M17.8091 13.395C19.5141 11.978 20.6991 9.95298 20.9921 7.62398C21.0611 7.07698 20.6731 6.57698 20.1241 6.50798C19.5841 6.43398 19.0761 6.82698 19.0081 7.37498C18.5691 10.867 15.5561 13.5 12.0001 13.5C8.44407 13.5 5.43107 10.867 4.99207 7.37498C4.92407 6.82698 4.41407 6.43798 3.87507 6.50798C3.32707 6.57698 2.93907 7.07698 3.00807 7.62398C3.30107 9.95298 4.48607 11.978 6.19107 13.395L3.87907 15.707C3.49007 16.096 3.49007 16.732 3.87907 17.121C4.26707 17.51 4.90407 17.51 5.29307 17.121L7.89607 14.518C8.85007 15 9.89707 15.318 11.0001 15.439V19C11.0001 19.55 11.4501 20 12.0001 20C12.5501 20 13.0001 19.55 13.0001 19V15.439C14.1021 15.318 15.1501 15 16.1031 14.518L18.7071 17.121C19.0961 17.51 19.7321 17.51 20.1211 17.121C20.5101 16.732 20.5101 16.096 20.1211 15.707L17.8091 13.395Z"
        fill="#FFFFFF"
        fill-rule="evenodd" />
</svg>

<svg fill="none" height="24" width="24" xmlns="http://www.w3.org/2000/svg">
    <path clip-rule="evenodd"
        d="M17.81 13.395a8.947 8.947 0 0 0 3.182-5.771 1 1 0 0 0-1.984-.249C18.57 10.867 15.556 13.5 12 13.5s-6.569-2.633-7.008-6.125a1 1 0 1 0-1.984.249 8.947 8.947 0 0 0 3.183 5.771L3.88 15.707a1.003 1.003 0 0 0 0 1.414 1.003 1.003 0 0 0 1.414 0l2.603-2.603c.954.482 2.001.8 3.104.921V19c0 .55.45 1 1 1s1-.45 1-1v-3.561a9.062 9.062 0 0 0 3.103-.921l2.604 2.603a1.003 1.003 0 0 0 1.414 0 1.003 1.003 0 0 0 0-1.414l-2.312-2.312Z"
        fill="#FFF" fill-rule="evenodd" />
</svg>
